melody-of-light/img/icons/icomoon/location.svg

<svg width="12" height="14" viewBox="0 0 12 14" fill="none" xmlns="http://www.w3.org/2000/svg">
<path fill-rule="evenodd" clip-rule="evenodd" d="M6.00007 1.5999C4.9316 1.5999 3.90036 2.04611 3.1351 2.85113C2.36885 3.65718 1.9334 4.75662 1.9334 5.90899C1.9334 7.58813 2.97186 9.2181 4.11258 10.4847C4.6724 11.1064 5.23403 11.6153 5.65618 11.9689C5.78578 12.0775 5.9018 12.1711 6.00006 12.2484C6.09832 12.1711 6.21435 12.0775 6.34395 11.9689C6.7661 11.6153 7.32773 11.1064 7.88755 10.4847C9.02827 9.2181 10.0667 7.58813 10.0667 5.90899C10.0667 4.75662 9.63128 3.65718 8.86503 2.85113C8.09977 2.04611 7.06853 1.5999 6.00007 1.5999ZM6.00007 12.9999C5.65556 13.4911 5.65541 13.491 5.65524 13.4909L5.65482 13.4906L5.65365 13.4898L5.65005 13.4873L5.63787 13.4786L5.59434 13.4472C5.5571 13.42 5.50374 13.3806 5.43657 13.3296C5.3023 13.2276 5.11248 13.0789 4.88561 12.8888C4.43276 12.5095 3.82773 11.9616 3.22089 11.2878C2.02827 9.96353 0.733398 8.04804 0.733398 5.90899C0.733398 4.45742 1.28127 3.05957 2.26537 2.02435C3.25044 0.988103 4.59317 0.399902 6.00007 0.399902C7.40696 0.399902 8.74969 0.988103 9.73476 2.02435C10.7189 3.05957 11.2667 4.45742 11.2667 5.90899C11.2667 8.04804 9.97186 9.96353 8.77925 11.2878C8.1724 11.9616 7.56737 12.5095 7.11452 12.8888C6.88765 13.0789 6.69783 13.2276 6.56356 13.3296C6.49639 13.3806 6.44303 13.42 6.40579 13.4472L6.36226 13.4786L6.35008 13.4873L6.34648 13.4898L6.34531 13.4906L6.34489 13.4909C6.34472 13.491 6.34457 13.4911 6.00007 12.9999ZM6.00007 12.9999L6.34457 13.4911C6.13779 13.6362 5.86234 13.6362 5.65556 13.4911L6.00007 12.9999Z" fill="#036A9B"/>
<path fill-rule="evenodd" clip-rule="evenodd" d="M6.00039 4.26641C5.22719 4.26641 4.60039 4.89321 4.60039 5.66641C4.60039 6.43961 5.22719 7.06641 6.00039 7.06641C6.77359 7.06641 7.40039 6.43961 7.40039 5.66641C7.40039 4.89321 6.77359 4.26641 6.00039 4.26641ZM3.40039 5.66641C3.40039 4.23047 4.56445 3.06641 6.00039 3.06641C7.43633 3.06641 8.60039 4.23047 8.60039 5.66641C8.60039 7.10235 7.43633 8.26641 6.00039 8.26641C4.56445 8.26641 3.40039 7.10235 3.40039 5.66641Z" fill="#036A9B"/>
</svg>

<svg width="12" height="14" fill="none" xmlns="http://www.w3.org/2000/svg"><path fill-rule="evenodd" clip-rule="evenodd" d="M6 1.6c-1.068 0-2.1.446-2.865 1.251A4.442 4.442 0 001.933 5.91c0 1.68 1.039 3.31 2.18 4.576A15.486 15.486 0 006 12.248a15.486 15.486 0 001.887-1.764c1.141-1.266 2.18-2.896 2.18-4.575a4.442 4.442 0 00-1.202-3.058A3.953 3.953 0 006 1.6zM6 13c-.344.491-.345.491-.345.49h-.001l-.004-.003-.012-.008-.044-.032-.157-.117a16.695 16.695 0 01-2.216-2.042C2.028 9.964.733 8.048.733 5.909c0-1.452.548-2.85 1.532-3.885A5.153 5.153 0 016 .4c1.407 0 2.75.588 3.735 1.624a5.641 5.641 0 011.532 3.885c0 2.139-1.295 4.055-2.488 5.379a16.696 16.696 0 01-2.373 2.16l-.044.03-.012.01-.004.002h-.001L6 13zm0 0l.345.491a.6.6 0 01-.69 0L6 13z" fill="#036A9B"/><path fill-rule="evenodd" clip-rule="evenodd" d="M6 4.266a1.4 1.4 0 100 2.8 1.4 1.4 0 000-2.8zm-2.6 1.4a2.6 2.6 0 115.2 0 2.6 2.6 0 01-5.2 0z" fill="#036A9B"/></svg>
